X:1
T:Spring, CM
T:Spring, CM
T:Leonard C. Everett (1818-1867)
T:Public Domain Courtesy of the Cyber Hymnal™
C:Leonard C. Everett (1818-1867)
Z:Public Domain
Z:Courtesy of the Cyber Hymnal™
%%score ( 1 2 ) ( 3 4 )
L:1/8
Q:1/4=125
M:3/2
K:C
V:1 treble 
V:2 treble 
V:3 bass 
V:4 bass 
V:1
 [EG]2 [FA]2 [EG]2 | [EG]6 C2 [CE]2 [B,D]2 | C6 [Ec]2 [Fd]2 [Ge]2 | [EG]8 [FA]4 | %4
 [EG]6 [Ec]2 [Gd]2 [Ge]2 | [Ac]6 [FA]2 [EG]2 [CE]2 | [B,D]6 C2 [CE]2 [EG]2 | [FA]8 [DB]4 | [Ec]6 |] %9
V:2
 x6 | x6 C2 x4 | C6 x6 | x12 | x12 | x12 | x6 C2 x4 | x12 | x6 |] %9
V:3
 [C,C]2 [C,C]2 [C,C]2 | [C,C]6 [E,G,]2 G,2 [G,,F,]2 | [C,E,]6 [C,G,]2 [C,G,]2 [C,C]2 | %3
 [C,C]8 [F,C]4 | [C,C]6 [A,C]2 [G,B,]2 [C,C]2 | [F,C]6 [F,C]2 [C,C]2 [C,G,]2 | %6
 [G,,G,]6 [C,E,]2 [C,G,]2 [C,C]2 | [F,C]8 G,4 | [C,G,]6 |] %9
V:4
 x6 | x8 G,2 x2 | x12 | x12 | x12 | x12 | x12 | x8 G,4 | x6 |] %9

